X:1
T:the Lads of Dunce
L:1/8
M:6/8
I:linebreak $
K:D
V:1 treble 
V:1
 B | AFD D>ED | D>ED TB2 A | Bcd AFA | BEE Edc | AFD DED | DED TB2 A | B/A/B/c/d AFB |$ ADD D2 :: %9
 e | Tf>ed d2 e | f/e/f/g/a TB2 A | Bcd AFA | BEE E2 e | f>ed d2 e | f/e/f/g/a TB2 A |$ %16
 B/A/B/c/d AFB | ADD D2 :| %18
